src/symbolic/status/my-caffeine-on-symbolic.svg

<svg xmlns="http://www.w3.org/2000/svg" width="16" height="16" version="1.1">
 <path style="fill:#444444" d="M 7.1934,0 C 6.0952,1.38 5.766,1.57 6.1621,2.45 6.5212,3.25 7.449,3.15 6.9824,5 7.7488,4.1 8.3577,3.46 7.7559,2.54 7.1437,1.6 6.8084,1.53 7.1934,0 Z M 10.193,0 C 9.0952,1.38 8.766,1.57 9.1621,2.45 9.5212,3.25 10.449,3.15 9.9824,5 10.749,4.1 11.358,3.46 10.756,2.54 10.144,1.6 9.8084,1.53 10.193,0 Z M 13.193,0 C 12.095,1.38 11.766,1.57 12.162,2.45 12.521,3.25 13.449,3.15 12.982,5 13.749,4.1 14.358,3.46 13.756,2.54 13.144,1.6 12.808,1.53 13.193,0 Z M 4,6 C 1.7909,6 0,7.79 0,10 0,12.21 1.7909,14 4,14 4.2425,14 4.4843,13.98 4.7227,13.93 5.462,15.48 6.958,16 10,16 16,16 16,14 16,6 Z M 4,8 H 4.0078 C 4.0194,9.6 4.06,10.94 4.2031,11.99 4.1357,11.99 4.0679,12 4,12 2.8954,12 2,11.1 2,10 2,8.9 2.8954,8 4,8 Z"/>
</svg>

<svg xmlns="http://www.w3.org/2000/svg" width="16" height="16"><path d="M7.193 0c-1.098 1.38-1.427 1.57-1.03 2.45.358.8 1.286.7.82 2.55.766-.9 1.375-1.54.773-2.46-.612-.94-.948-1.01-.563-2.54zm3 0c-1.098 1.38-1.427 1.57-1.03 2.45.358.8 1.286.7.82 2.55.766-.9 1.375-1.54.773-2.46-.612-.94-.948-1.01-.563-2.54zm3 0c-1.098 1.38-1.427 1.57-1.031 2.45.359.8 1.287.7.82 2.55.767-.9 1.376-1.54.774-2.46-.612-.94-.948-1.01-.563-2.54zM4 6a4 4 0 1 0 0 8c.242 0 .484-.02.723-.07C5.462 15.48 6.958 16 10 16c6 0 6-2 6-10zm0 2h.008c.011 1.6.052 2.94.195 3.99-.067 0-.135.01-.203.01-1.105 0-2-.9-2-2s.895-2 2-2z" fill="#444"/></svg>
